img/partners/img-4.svg

<svg width="180" height="94" viewBox="0 0 180 94" fill="none" xmlns="http://www.w3.org/2000/svg">
<path d="M71.2379 54.0248C71.2379 56.0028 70.9929 59.0698 67.0279 59.0698H62.3439C58.3969 59.0698 58.1519 56.0028 58.1519 54.0248V35.8678C58.1519 33.8888 58.3969 30.8218 62.3439 30.8218H67.0279C70.9929 30.8218 71.2379 33.8888 71.2379 35.8678V39.8618H65.5729V35.2568C65.5729 34.7738 65.2139 34.3298 64.6859 34.3298C64.3639 34.3298 63.7979 34.5298 63.7979 35.2568V54.5198C63.7979 55.2458 64.3629 55.4468 64.6859 55.4468C65.2139 55.4468 65.5729 55.0048 65.5729 54.5198V48.3358H64.7239V45.2278H71.2379V54.0248Z" fill="#0F79BF"/>
<path d="M79.7369 48.4568L80.6999 34.3388H81.0209L82.0019 48.4568H79.7369ZM73.4849 59.0698H79.0179L79.5279 51.5648H82.1919L82.7209 59.0698H88.2529L85.3089 30.8208H76.4329L73.4849 59.0698Z" fill="#0F79BF"/>
<path d="M90.3486 55.5208L95.7686 34.3388H90.9156V30.8208H101.563V34.3308L96.1666 55.4478H101.906V59.0698H90.3486V55.5208Z" fill="#0F79BF"/>
<path d="M110.214 45.9388V34.3238H110.932C111.557 34.3238 111.991 34.8468 111.991 35.7378V44.5288C111.991 45.4148 111.557 45.9398 110.932 45.9398L110.214 45.9388ZM104.55 59.0698H110.214V49.4658H113.445C117.388 49.4658 117.636 46.3988 117.636 44.4208V35.8668C117.636 33.8878 117.388 30.8208 113.445 30.8208H104.549L104.55 59.0698Z" fill="#0F79BF"/>
<path d="M126.193 45.0958V34.3258H126.927C127.531 34.3258 127.965 34.8498 127.965 35.7378V43.6838C127.965 44.5718 127.531 45.0958 126.927 45.0958H126.193ZM134.35 59.0698L131.575 48.0518C133.576 47.2448 133.616 45.3878 133.616 44.6208V35.8658C133.616 33.8868 133.387 30.8198 129.421 30.8198H120.547V59.0698H126.194V48.6168H126.606L128.533 59.0698H134.35Z" fill="#0F79BF"/>
<path d="M144.811 54.5198C144.811 55.0038 144.453 55.4488 143.92 55.4488C143.602 55.4488 143.034 55.2458 143.034 54.5198V35.2558C143.034 34.5278 143.601 34.3288 143.92 34.3288C144.451 34.3288 144.811 34.7718 144.811 35.2558V54.5198ZM137.389 54.0248C137.389 56.0028 137.635 59.0698 141.602 59.0698H146.266C150.233 59.0698 150.475 56.0028 150.475 54.0248V35.8678C150.475 33.8888 150.233 30.8218 146.266 30.8218H141.602C137.635 30.8218 137.389 33.8888 137.389 35.8678V54.0248Z" fill="#0F79BF"/>
<path d="M168.208 30.8208H175.555V59.0698H169.909V41.3528H169.7L166.793 59.0698H162.279L159.371 41.3528H159.163V59.0698H153.517V30.8208H160.861L164.525 50.6748L168.208 30.8208Z" fill="#0F79BF"/>
<path d="M51.058 19.5759C49.253 11.7019 44.742 5.30088 44.134 4.25488C43.154 5.72588 39.5641 11.3759 37.7201 17.6509C35.7391 24.6389 35.446 30.8439 36.132 36.9539C36.819 43.0619 39.3871 49.3349 39.3871 49.3349C40.7601 52.6319 42.82 56.1599 44.153 57.8939C46.115 55.3449 50.626 47.7369 52.037 37.8029C52.823 32.2809 52.841 27.4459 51.058 19.5759ZM44.134 55.9309C43.252 54.2649 41.8791 51.0929 41.7401 46.1959C41.7011 41.4599 43.604 37.4089 44.153 36.5609C44.644 37.4099 46.291 40.9359 46.487 45.7719C46.604 50.5089 45.036 54.2309 44.134 55.9309ZM50.528 32.9339C50.469 35.9349 50.116 39.1049 49.646 40.9989C49.823 37.7339 49.4301 33.1279 48.6651 29.5339C47.9211 25.9429 45.802 19.9319 44.097 17.1559C42.527 19.8019 40.605 24.9979 39.586 29.5009C38.585 34.0139 38.5461 39.4639 38.5461 41.1029C38.2701 39.7229 37.604 34.8079 37.8 29.8649C37.957 25.7869 38.8991 21.5989 39.4281 19.6729C41.4281 13.2369 43.6831 9.12388 44.0961 8.47188C44.5261 9.12388 47.37 14.1859 48.842 19.5109C50.312 24.8329 50.606 29.9289 50.528 32.9339Z" fill="#0F79BF"/>
<path d="M47.1741 59.7258H33.5041V68.8968C33.5251 68.8838 33.5441 68.8748 33.5441 68.8618C36.7601 65.6408 41.9961 65.6408 45.2121 68.8618C48.4291 72.0848 48.4291 77.3038 45.2121 80.5288C45.1921 80.5408 45.1921 80.5498 45.1741 80.5628C45.1741 80.5658 45.1741 80.5658 45.1741 80.5698C45.1541 80.5828 45.1341 80.5938 45.1141 80.6098C41.9181 83.7998 37.7011 85.3958 33.5041 85.3958C29.2881 85.3958 25.0711 83.7888 21.8541 80.5708C16.1871 74.9028 15.5201 66.1328 19.8341 59.7258C20.4221 58.8608 21.0881 58.0368 21.8541 57.2728C25.0711 54.0508 29.2881 52.4448 33.5041 52.4448V30.3848C17.3051 30.3848 4.16406 43.5228 4.16406 59.7258C4.16406 75.9258 17.3051 89.0628 33.5041 89.0628C41.9581 89.0628 49.5671 85.4898 54.9211 79.7788V59.7258H47.1741Z" fill="#0F79BF"/>
<path d="M175.555 69.123H58.1519V89.062H175.555V69.123Z" fill="#0F79BF"/>
<path d="M64.2127 72.2729H64.3727H68.6127L69.9887 85.7119H69.8287H67.2047L66.9167 82.1279H65.8297L65.5737 85.7119H65.4137H62.8057L64.2127 72.2729ZM66.8057 80.6579L66.3577 74.1779L65.9097 80.6579H66.8057Z" fill="white"/>
<path d="M97.5366 72.2729H97.6966H100.4L101.169 80.4179L101.825 72.2729H101.984H104.72L103.007 85.7289H102.847H99.2946L97.5366 72.2729Z" fill="white"/>
<path d="M132.716 72.2729H132.875H135.563V85.7119H135.403H132.715L132.716 72.2729Z" fill="white"/>
<path d="M164.967 72.2729H165.126H169.366L170.742 85.7119H170.582H167.958L167.67 82.1279H166.582L166.326 85.7119H166.166H163.559L164.967 72.2729ZM167.559 80.6579L167.112 74.1779L166.664 80.6579H167.559Z" fill="white"/>
</svg>

<svg width="180" height="94" fill="none" xmlns="http://www.w3.org/2000/svg"><path d="M71.238 54.025c0 1.978-.245 5.045-4.21 5.045h-4.684c-3.947 0-4.192-3.067-4.192-5.045V35.868c0-1.98.245-5.046 4.192-5.046h4.684c3.965 0 4.21 3.067 4.21 5.046v3.994h-5.665v-4.605c0-.483-.36-.927-.887-.927-.322 0-.888.2-.888.927V54.52c0 .726.565.927.888.927.528 0 .887-.442.887-.927v-6.184h-.85v-3.108h6.515v8.797zm8.499-5.568l.963-14.118h.32l.982 14.118h-2.265zM73.485 59.07h5.533l.51-7.505h2.664l.529 7.505h5.532l-2.944-28.25h-8.876l-2.948 28.25zm16.864-3.55l5.42-21.181h-4.853V30.82h10.647v3.51l-5.396 21.117h5.739v3.622H90.349v-3.55zm19.865-9.581V34.324h.718c.625 0 1.059.523 1.059 1.414v8.79c0 .887-.434 1.412-1.059 1.412l-.718-.001zm-5.664 13.13h5.664v-9.603h3.231c3.943 0 4.191-3.067 4.191-5.045v-8.554c0-1.98-.248-5.046-4.191-5.046h-8.896l.001 28.249zm21.643-13.973v-10.77h.734c.604 0 1.038.524 1.038 1.412v7.946c0 .888-.434 1.412-1.038 1.412h-.734zm8.157 13.974l-2.775-11.018c2.001-.807 2.041-2.664 2.041-3.431v-8.755c0-1.98-.229-5.046-4.195-5.046h-8.874v28.25h5.647V48.617h.412l1.927 10.453h5.817zm10.461-4.55c0 .484-.358.929-.891.929-.318 0-.886-.203-.886-.93V35.257c0-.728.567-.927.886-.927.531 0 .891.443.891.927V54.52zm-7.422-.495c0 1.978.246 5.045 4.213 5.045h4.664c3.967 0 4.209-3.067 4.209-5.045V35.868c0-1.98-.242-5.046-4.209-5.046h-4.664c-3.967 0-4.213 3.067-4.213 5.046v18.157zm30.819-23.205h7.347v28.25h-5.646V41.353h-.209l-2.907 17.717h-4.514l-2.908-17.717h-.208V59.07h-5.646V30.82h7.344l3.664 19.855 3.683-19.854zM51.058 19.576C49.253 11.702 44.742 5.3 44.134 4.255c-.98 1.47-4.57 7.12-6.414 13.396-1.98 6.988-2.274 13.193-1.588 19.303.687 6.108 3.255 12.38 3.255 12.38 1.373 3.298 3.433 6.826 4.766 8.56 1.962-2.55 6.473-10.157 7.884-20.091.786-5.522.804-10.357-.979-18.227zM44.134 55.93c-.882-1.666-2.255-4.838-2.394-9.735-.039-4.736 1.864-8.787 2.413-9.635.491.849 2.138 4.375 2.334 9.21.117 4.738-1.451 8.46-2.353 10.16zm6.394-22.997c-.059 3-.412 6.17-.882 8.065.177-3.265-.216-7.871-.98-11.465-.745-3.591-2.864-9.602-4.569-12.378-1.57 2.646-3.492 7.842-4.511 12.345-1.001 4.513-1.04 9.963-1.04 11.602-.276-1.38-.942-6.295-.746-11.238.157-4.078 1.1-8.266 1.628-10.192 2-6.436 4.255-10.55 4.668-11.201.43.652 3.274 5.714 4.746 11.039 1.47 5.322 1.764 10.418 1.686 13.423z" fill="#0F79BF"/><path d="M47.174 59.726h-13.67v9.17c.021-.012.04-.021.04-.034 3.216-3.221 8.452-3.221 11.668 0a8.258 8.258 0 010 11.667c-.02.012-.02.02-.038.034v.007c-.02.013-.04.024-.06.04-3.196 3.19-7.413 4.786-11.61 4.786a16.42 16.42 0 01-11.65-4.825c-5.667-5.668-6.334-14.438-2.02-20.845a16.732 16.732 0 012.02-2.453 16.407 16.407 0 0111.65-4.828v-22.06c-16.199 0-29.34 13.138-29.34 29.34 0 16.2 13.141 29.338 29.34 29.338 8.454 0 16.063-3.573 21.417-9.284V59.726h-7.747zm128.381 9.397H58.152v19.939h117.403V69.123z" fill="#0F79BF"/><path d="M64.213 72.273h4.4l1.376 13.439h-2.784l-.288-3.584H65.83l-.256 3.584h-2.768l1.407-13.44zm2.593 8.385l-.448-6.48-.448 6.48h.896zm30.731-8.385h2.863l.769 8.145.656-8.145h2.895l-1.713 13.456h-3.712l-1.758-13.456zm35.179 0h2.847v13.439h-2.848l.001-13.44zm32.251 0h4.399l1.376 13.439h-2.784l-.288-3.584h-1.088l-.256 3.584h-2.767l1.408-13.44zm2.592 8.385l-.447-6.48-.448 6.48h.895z" fill="#fff"/></svg>
